build/images/icons/contacts-phone-icon.svg

<svg width="16" height="16" viewBox="0 0 16 16" fill="none" xmlns="http://www.w3.org/2000/svg">
<path d="M0.437568 6.76841C0.154317 6.00333 -0.0507961 5.22197 0.0110633 4.39178C0.0501324 3.88064 0.242222 3.44438 0.616634 3.08626C1.0236 2.7021 1.40778 2.29839 1.80824 1.90772C2.32916 1.39332 2.98357 1.39658 3.50449 1.90772C3.82681 2.22351 4.14588 2.54582 4.46494 2.86813C4.77424 3.17742 5.08679 3.48671 5.39609 3.79925C5.9398 4.34946 5.94306 4.99082 5.39934 5.53777C5.00865 5.92845 4.62122 6.32238 4.22402 6.70655C4.11983 6.80747 4.11006 6.89212 4.16541 7.01909C4.42587 7.64418 4.80354 8.20089 5.22679 8.7218C6.0798 9.77012 7.0435 10.7012 8.19279 11.4207C8.44022 11.5738 8.71045 11.6877 8.96766 11.8277C9.10114 11.8993 9.18905 11.8765 9.29649 11.7658C9.68392 11.3654 10.0811 10.9715 10.4783 10.5775C10.9993 10.0631 11.6504 10.0599 12.1713 10.5775C12.8095 11.2091 13.4443 11.844 14.0759 12.4821C14.6066 13.016 14.6034 13.6704 14.0694 14.2076C13.708 14.5722 13.3271 14.9173 12.9885 15.2982C12.4936 15.8517 11.8685 16.034 11.1588 15.9949C10.1235 15.9396 9.16951 15.5945 8.24813 15.1485C6.20352 14.1555 4.45843 12.7783 2.99659 11.0398C1.91568 9.75059 1.0236 8.35065 0.437568 6.76841ZM15.2741 7.93393C15.693 7.93393 16.0364 7.59325 15.9969 7.17617C15.6376 3.38764 12.6123 0.362429 8.82359 0.00310807C8.40651 -0.036449 8.06581 0.306969 8.06581 0.725914C8.06581 1.14486 8.40697 1.47979 8.82306 1.52871C11.7747 1.87572 14.1242 4.22519 14.4712 7.1767C14.5202 7.59278 14.8551 7.93393 15.2741 7.93393ZM11.5918 7.18073C11.6783 7.59065 12.0096 7.93393 12.4285 7.93393C12.8475 7.93393 13.193 7.59232 13.1314 7.17793C12.8013 4.95888 11.041 3.19861 8.82183 2.86852C8.40743 2.80688 8.06581 3.15241 8.06581 3.57136C8.06581 3.9903 8.4091 4.32156 8.81903 4.40806C9.49498 4.55067 10.1156 4.88526 10.6151 5.38475C11.1146 5.88425 11.4492 6.50481 11.5918 7.18073Z" fill="#52BFFF"/>
</svg>

<svg width="16" height="16" fill="none" xmlns="http://www.w3.org/2000/svg"><path d="M.438 6.768C.154 6.003-.051 5.222.01 4.392c.04-.511.231-.948.606-1.306.407-.384.79-.788 1.191-1.178.521-.515 1.176-.511 1.696 0 .323.316.642.638.96.96.31.31.623.619.932.931.544.55.547 1.192.003 1.739-.39.39-.778.784-1.175 1.169-.104.1-.114.185-.059.312.26.625.639 1.182 1.062 1.703.853 1.048 1.816 1.98 2.966 2.699.247.153.517.267.775.407.133.071.221.049.328-.062.388-.4.785-.794 1.182-1.188.521-.515 1.172-.518 1.693 0 .639.631 1.273 1.266 1.905 1.904.53.534.527 1.188-.007 1.726-.361.364-.742.71-1.08 1.09-.495.554-1.12.736-1.83.697-1.036-.055-1.99-.4-2.91-.846a15.84 15.84 0 0 1-5.252-4.11C1.916 9.752 1.024 8.352.437 6.77Zm14.836 1.166c.419 0 .762-.34.723-.758A7.982 7.982 0 0 0 8.824.003c-.417-.04-.758.304-.758.723s.341.754.757.803a6.464 6.464 0 0 1 5.648 5.648c.05.416.384.757.803.757Zm-3.682-.753c.086.41.418.753.836.753.42 0 .765-.342.703-.756a5.135 5.135 0 0 0-4.31-4.31c-.414-.061-.755.284-.755.703 0 .42.343.75.753.837a3.577 3.577 0 0 1 1.796.977c.5.5.834 1.12.977 1.796Z" fill="#52BFFF"/></svg>
